;FLAVOR:UltiGCode
;TIME:431
;MATERIAL:993
;MATERIAL2:0

;Layer count: 55
;LAYER:0
M107
G0 F9000 X106.000 Y103.500 Z0.300
;TYPE:SKIRT
G1 F1200 X124.000 Y103.500 E2.16000
G1 X124.000 Y121.500 E4.32000
G1 X106.000 Y121.500 E6.48000
G1 X106.000 Y103.500 E8.64000
G0 F9000 X106.400 Y103.900
G1 F1200 X123.600 Y103.900 E10.70400
G1 X123.600 Y121.100 E12.76800
G1 X106.400 Y121.100 E14.83200
G1 X106.400 Y103.900 E16.89600
G0 F9000 X106.800 Y104.300
G1 F1200 X123.200 Y104.300 E18.86400
G1 X123.200 Y120.700 E20.83200
G1 X106.800 Y120.700 E22.80000
G1 X106.800 Y104.300 E24.76800
G10
G0 F9000 X111.000 Y108.500
;TYPE:WALL-INNER
G11
G1 F1200 X119.000 Y108.500 E25.72800
G1 X119.000 Y116.500 E26.68800
G1 X111.000 Y116.500 E27.64800
G1 X111.000 Y108.500 E28.60800
G0 F9000 X110.600 Y108.100
G1 F1200 X119.400 Y108.100 E29.66400
G1 X119.400 Y116.900 E30.72000
G1 X110.600 Y116.900 E31.77600
G1 X110.600 Y108.100 E32.83200
G0 F9000 X110.200 Y107.700
;TYPE:WALL-OUTER
G1 F1200 X119.800 Y107.700 E33.98400
G1 X119.800 Y117.300 E35.13600
G1 X110.200 Y117.300 E36.28800
G1 X110.200 Y107.700 E37.44000
G0 F9000 X111.185 Y108.639
;TYPE:SKIN
G1 F900 X118.858 Y116.313 E38.74224
G0 F9000 X118.339 Y116.359
G1 F900 X111.138 Y109.158 E39.96429
G0 F9000 X111.138 Y109.724
G1 F900 X117.773 Y116.359 E41.09028
G0 F9000 X117.207 Y116.359
G1 F900 X111.138 Y110.290 E42.12023
G0 F9000 X111.138 Y110.855
G1 F900 X116.642 Y116.359 E43.05429
G0 F9000 X116.076 Y116.359
G1 F900 X111.138 Y111.421 E43.89229
G0 F9000 X111.138 Y111.987
G1 F900 X115.510 Y116.359 E44.63425
G0 F9000 X114.945 Y116.359
G1 F900 X111.138 Y112.553 E45.28023
G0 F9000 X111.138 Y113.118
G1 F900 X114.379 Y116.359 E45.83025
G0 F9000 X113.813 Y116.359
G1 F900 X111.138 Y113.684 E46.28421
G0 F9000 X111.138 Y114.250
G1 F900 X113.248 Y116.359 E46.64220
G0 F9000 X112.682 Y116.359
G1 F900 X111.138 Y114.815 E46.90423
G0 F9000 X111.138 Y115.381
G1 F900 X112.116 Y116.359 E47.07020
G0 F9000 X111.551 Y116.359
G1 F900 X111.138 Y115.947 E47.14020
G0 F9000 X111.751 Y108.639
G1 F900 X118.858 Y115.747 E48.34639
G0 F9000 X118.858 Y115.182
G1 F900 X112.316 Y108.639 E49.45669
G0 F9000 X112.882 Y108.639
G1 F900 X118.858 Y114.616 E50.47093
G0 F9000 X118.858 Y114.050
G1 F900 X113.448 Y108.639 E51.38912
G0 F9000 X114.013 Y108.639
G1 F900 X118.858 Y113.484 E52.21135
G0 F9000 X118.858 Y112.919
G1 F900 X114.579 Y108.639 E52.93760
G0 F9000 X115.145 Y108.639
G1 F900 X118.858 Y112.353 E53.56780
G0 F9000 X118.858 Y111.787
G1 F900 X115.710 Y108.639 E54.10204
G0 F9000 X116.276 Y108.639
G1 F900 X118.858 Y111.222 E54.54030
G0 F9000 X118.858 Y110.656
G1 F900 X116.842 Y108.639 E54.88251
G0 F9000 X117.408 Y108.639
G1 F900 X118.858 Y110.090 E55.12867
G0 F9000 X118.858 Y109.525
G1 F900 X117.973 Y108.639 E55.27895
G0 F9000 X118.539 Y108.639
G1 F900 X118.858 Y108.959 E55.33317
;LAYER:1
M106 S127
G0 F9000 X119.003 Y108.497 Z0.480
;TYPE:WALL-INNER
G1 F1620 X119.003 Y116.503 E55.90816
G1 X110.997 Y116.503 E56.48315
G1 X110.997 Y108.497 E57.05814
G1 X119.003 Y108.497 E57.63313
G0 F9000 X119.402 Y108.098
G1 F1620 X119.402 Y116.902 E58.26543
G1 X110.598 Y116.902 E58.89774
G1 X110.598 Y108.098 E59.53004
G1 X119.402 Y108.098 E60.16234
G0 F9000 X119.801 Y107.699
;TYPE:WALL-OUTER
G1 F1320 X119.801 Y117.301 E60.85196
G1 X110.199 Y117.301 E61.54158
G1 X110.199 Y107.699 E62.23119
G1 X119.801 Y107.699 E62.92081
G0 F9000 X118.861 Y108.822
;TYPE:SKIN
G1 F900 X111.321 Y116.362 E63.68664
G0 F9000 X111.136 Y115.983
G1 F900 X118.482 Y108.637 E64.43276
G0 F9000 X117.918 Y108.637
G1 F900 X111.136 Y115.418 E65.12155
G0 F9000 X111.136 Y114.854
G1 F900 X117.354 Y108.637 E65.75305
G0 F9000 X116.789 Y108.637
G1 F900 X111.136 Y114.290 E66.32722
G0 F9000 X111.136 Y113.726
G1 F900 X116.225 Y108.637 E66.84411
G0 F9000 X115.661 Y108.637
G1 F900 X111.136 Y113.161 E67.30365
G0 F9000 X111.136 Y112.597
G1 F900 X115.097 Y108.637 E67.70592
G0 F9000 X114.532 Y108.637
G1 F900 X111.136 Y112.033 E68.05084
G0 F9000 X111.136 Y111.469
G1 F900 X113.968 Y108.637 E68.33849
G0 F9000 X113.404 Y108.637
G1 F900 X111.136 Y110.904 E68.56880
G0 F9000 X111.136 Y110.340
G1 F900 X112.840 Y108.637 E68.74182
G0 F9000 X112.275 Y108.637
G1 F900 X111.136 Y109.776 E68.85750
G0 F9000 X111.136 Y109.211
G1 F900 X111.711 Y108.637 E68.91586
G0 F9000 X118.861 Y109.386
G1 F900 X111.885 Y116.362 E69.62440
G0 F9000 X112.449 Y116.362
G1 F900 X118.861 Y109.950 E70.27566
G0 F9000 X118.861 Y110.515
G1 F900 X113.014 Y116.362 E70.86953
G0 F9000 X113.578 Y116.362
G1 F900 X118.861 Y111.079 E71.40612
G0 F9000 X118.861 Y111.643
G1 F900 X114.142 Y116.362 E71.88542
G0 F9000 X114.706 Y116.362
G1 F900 X118.861 Y112.207 E72.30744
G0 F9000 X118.861 Y112.772
G1 F900 X115.271 Y116.362 E72.67207
G0 F9000 X115.835 Y116.362
G1 F900 X118.861 Y113.336 E72.97942
G0 F9000 X118.861 Y113.900
G1 F900 X116.399 Y116.362 E73.22948
G0 F9000 X116.963 Y116.362
G1 F900 X118.861 Y114.465 E73.42221
G0 F9000 X118.861 Y115.029
G1 F900 X117.528 Y116.362 E73.55760
G0 F9000 X118.092 Y116.362
G1 F900 X118.861 Y115.593 E73.63571
G0 F9000 X118.861 Y116.157
G1 F900 X118.656 Y116.362 E73.65653
;LAYER:2
M106 S255
G0 F9000 X119.003 Y116.503 Z0.660
;TYPE:WALL-INNER
G1 F2100 X110.997 Y116.503 E74.23152
G1 X110.997 Y108.497 E74.80651
G1 X119.003 Y108.497 E75.38150
G1 X119.003 Y116.503 E75.95649
G0 F9000 X119.402 Y116.902
G1 F2100 X110.598 Y116.902 E76.58880
G1 X110.598 Y108.098 E77.22110
G1 X119.402 Y108.098 E77.85340
G1 X119.402 Y116.902 E78.48571
G0 F9000 X119.801 Y117.301
;TYPE:WALL-OUTER
G1 F1500 X110.199 Y117.301 E79.17532
G1 X110.199 Y107.699 E79.86494
G1 X119.801 Y107.699 E80.55455
G1 X119.801 Y117.301 E81.24417
G0 F9000 X118.861 Y116.323
;TYPE:SKIN
G1 F900 X111.175 Y108.637 E82.02483
G0 F9000 X111.135 Y109.161
G1 F900 X118.336 Y116.362 E82.75622
G0 F9000 X117.772 Y116.362
G1 F900 X111.135 Y109.726 E83.43029
G0 F9000 X111.135 Y110.290
G1 F900 X117.207 Y116.362 E84.04701
G0 F9000 X116.643 Y116.362
G1 F900 X111.135 Y110.854 E84.60645
G0 F9000 X111.135 Y111.418
G1 F900 X116.079 Y116.362 E85.10861
G0 F9000 X115.515 Y116.362
G1 F900 X111.135 Y111.983 E85.55343
G0 F9000 X111.135 Y112.547
G1 F900 X114.950 Y116.362 E85.94091
G0 F9000 X114.386 Y116.362
G1 F900 X111.135 Y113.111 E86.27111
G0 F9000 X111.135 Y113.675
G1 F900 X113.822 Y116.362 E86.54403
G0 F9000 X113.258 Y116.362
G1 F900 X111.135 Y114.240 E86.75961
G0 F9000 X111.135 Y114.804
G1 F900 X112.693 Y116.362 E86.91785
G0 F9000 X112.129 Y116.362
G1 F900 X111.135 Y115.368 E87.01881
G0 F9000 X111.135 Y115.932
G1 F900 X111.565 Y116.362 E87.06249
G0 F9000 X118.861 Y115.759
G1 F900 X111.739 Y108.637 E87.78586
G0 F9000 X112.304 Y108.637
G1 F900 X118.861 Y115.194 E88.45185
G0 F9000 X118.861 Y114.630
G1 F900 X112.868 Y108.637 E89.06055
G0 F9000 X113.432 Y108.637
G1 F900 X118.861 Y114.066 E89.61197
G0 F9000 X118.861 Y113.501
G1 F900 X113.996 Y108.637 E90.10605
G0 F9000 X114.561 Y108.637
G1 F900 X118.861 Y112.937 E90.54279
G0 F9000 X118.861 Y112.373
G1 F900 X115.125 Y108.637 E90.92226
G0 F9000 X115.689 Y108.637
G1 F900 X118.861 Y111.809 E91.24443
G0 F9000 X118.861 Y111.244
G1 F900 X116.254 Y108.637 E91.50922
G0 F9000 X116.818 Y108.637
G1 F900 X118.861 Y110.680 E91.71673
G0 F9000 X118.861 Y110.116
G1 F900 X117.382 Y108.637 E91.86695
G0 F9000 X117.946 Y108.637
G1 F900 X118.861 Y109.552 E91.95988
G0 F9000 X118.861 Y108.987
G1 F900 X118.511 Y108.637 E91.99543
;LAYER:3
G0 F9000 X119.003 Y108.497 Z0.840
;TYPE:WALL-INNER
G1 F2520 X119.003 Y116.503 E92.57042
G1 X110.997 Y116.503 E93.14541
G1 X110.997 Y108.497 E93.72040
G1 X119.003 Y108.497 E94.29540
G0 F9000 X119.402 Y108.098
G1 F2520 X119.402 Y116.902 E94.92770
G1 X110.598 Y116.902 E95.56000
G1 X110.598 Y108.098 E96.19230
G1 X119.402 Y108.098 E96.82461
G0 F9000 X119.801 Y107.699
;TYPE:WALL-OUTER
G1 F1620 X119.801 Y117.301 E97.51422
G1 X110.199 Y117.301 E98.20384
G1 X110.199 Y107.699 E98.89346
G1 X119.801 Y107.699 E99.58307
G0 F9000 X118.861 Y108.822
;TYPE:SKIN
G1 F900 X111.321 Y116.362 E100.34890
G0 F9000 X111.136 Y115.983
G1 F900 X118.482 Y108.637 E101.09502
G0 F9000 X117.918 Y108.637
G1 F900 X111.136 Y115.418 E101.78381
G0 F9000 X111.136 Y114.854
G1 F900 X117.354 Y108.637 E102.41532
G0 F9000 X116.789 Y108.637
G1 F900 X111.136 Y114.290 E102.98949
G0 F9000 X111.136 Y113.726
G1 F900 X116.225 Y108.637 E103.50637
G0 F9000 X115.661 Y108.637
G1 F900 X111.136 Y113.161 E103.96592
G0 F9000 X111.136 Y112.597
G1 F900 X115.097 Y108.637 E104.36818
G0 F9000 X114.532 Y108.637
G1 F900 X111.136 Y112.033 E104.71311
G0 F9000 X111.136 Y111.469
G1 F900 X113.968 Y108.637 E105.00075
G0 F9000 X113.404 Y108.637
G1 F900 X111.136 Y110.904 E105.23106
G0 F9000 X111.136 Y110.340
G1 F900 X112.840 Y108.637 E105.40408
G0 F9000 X112.275 Y108.637
G1 F900 X111.136 Y109.776 E105.51977
G0 F9000 X111.136 Y109.211
G1 F900 X111.711 Y108.637 E105.57812
G0 F9000 X118.861 Y109.386
G1 F900 X111.885 Y116.362 E106.28666
G0 F9000 X112.449 Y116.362
G1 F900 X118.861 Y109.950 E106.93792
G0 F9000 X118.861 Y110.515
G1 F900 X113.014 Y116.362 E107.53180
G0 F9000 X113.578 Y116.362
G1 F900 X118.861 Y111.079 E108.06838
G0 F9000 X118.861 Y111.643
G1 F900 X114.142 Y116.362 E108.54769
G0 F9000 X114.706 Y116.362
G1 F900 X118.861 Y112.207 E108.96971
G0 F9000 X118.861 Y112.772
G1 F900 X115.271 Y116.362 E109.33434
G0 F9000 X115.835 Y116.362
G1 F900 X118.861 Y113.336 E109.64168
G0 F9000 X118.861 Y113.900
G1 F900 X116.399 Y116.362 E109.89175
G0 F9000 X116.963 Y116.362
G1 F900 X118.861 Y114.465 E110.08447
G0 F9000 X118.861 Y115.029
G1 F900 X117.528 Y116.362 E110.21987
G0 F9000 X118.092 Y116.362
G1 F900 X118.861 Y115.593 E110.29797
G0 F9000 X118.861 Y116.157
G1 F900 X118.656 Y116.362 E110.31879
;LAYER:4
G0 F9000 X118.559 Y116.362 Z1.020
;TYPE:FILL
G1 F3000 X111.135 Y108.938 E111.07284
G0 F9000 X111.462 Y108.637
G1 F3000 X118.861 Y116.036 E111.82435
G0 F9000 X118.861 Y115.408
G1 F3000 X112.090 Y108.637 E112.51207
G0 F9000 X112.718 Y108.637
G1 F3000 X118.861 Y114.780 E113.13601
G0 F9000 X118.861 Y114.152
G1 F3000 X113.346 Y108.637 E113.69616
G0 F9000 X113.974 Y108.637
G1 F3000 X118.861 Y113.524 E114.19253
G0 F9000 X118.861 Y112.896
G1 F3000 X114.602 Y108.637 E114.62511
G0 F9000 X115.230 Y108.637
G1 F3000 X118.861 Y112.268 E114.99390
G0 F9000 X118.861 Y111.640
G1 F3000 X115.858 Y108.637 E115.29892
G0 F9000 X116.485 Y108.637
G1 F3000 X118.861 Y111.012 E115.54019
G0 F9000 X118.861 Y110.385
G1 F3000 X117.113 Y108.637 E115.71773
G0 F9000 X117.741 Y108.637
G1 F3000 X118.861 Y109.757 E115.83149
G0 F9000 X118.861 Y109.129
G1 F3000 X118.369 Y108.637 E115.88146
G0 F9000 X111.135 Y109.566
G1 F3000 X117.931 Y116.362 E116.57173
G0 F9000 X117.304 Y116.362
G1 F3000 X111.135 Y110.194 E117.19825
G0 F9000 X111.135 Y110.822
G1 F3000 X116.676 Y116.362 E117.76099
G0 F9000 X116.048 Y116.362
G1 F3000 X111.135 Y111.449 E118.26000
G0 F9000 X111.135 Y112.077
G1 F3000 X115.420 Y116.362 E118.69522
G0 F9000 X114.792 Y116.362
G1 F3000 X111.135 Y112.705 E119.06666
G0 F9000 X111.135 Y113.333
G1 F3000 X114.164 Y116.362 E119.37431
G0 F9000 X113.536 Y116.362
G1 F3000 X111.135 Y113.961 E119.61818
G0 F9000 X111.135 Y114.589
G1 F3000 X112.908 Y116.362 E119.79826
G0 F9000 X112.280 Y116.362
G1 F3000 X111.135 Y115.217 E119.91456
G0 F9000 X111.135 Y115.845
G1 F3000 X111.652 Y116.362 E119.96707
G0 F9000 X110.997 Y116.503
;TYPE:WALL-INNER
G1 F3000 X110.997 Y108.497 E120.54206
G1 X119.003 Y108.497 E121.11705
G1 X119.003 Y116.503 E121.69204
G1 X110.997 Y116.503 E122.26703
G0 F9000 X110.598 Y116.902
G1 F3000 X110.598 Y108.098 E122.89934
G1 X119.402 Y108.098 E123.53164
G1 X119.402 Y116.902 E124.16394
G1 X110.598 Y116.902 E124.79625
G0 F9000 X110.199 Y117.301
;TYPE:WALL-OUTER
G1 F1800 X110.199 Y107.699 E125.48586
G1 X119.801 Y107.699 E126.17548
G1 X119.801 Y117.301 E126.86509
G1 X110.199 Y117.301 E127.55471
G0 F9000 X111.197 Y116.303
;LAYER:5
G0 X111.254 Y116.362 Z1.200
;TYPE:FILL
G1 F3000 X118.861 Y108.755 E128.32734
G0 F9000 X118.352 Y108.637
G1 F3000 X111.136 Y115.853 E129.06026
G0 F9000 X111.136 Y115.225
G1 F3000 X117.724 Y108.637 E129.72940
G0 F9000 X117.096 Y108.637
G1 F3000 X111.136 Y114.597 E130.33475
G0 F9000 X111.136 Y113.969
G1 F3000 X116.468 Y108.637 E130.87631
G0 F9000 X115.841 Y108.637
G1 F3000 X111.136 Y113.341 E131.35414
G0 F9000 X111.136 Y112.713
G1 F3000 X115.213 Y108.637 E131.76819
G0 F9000 X114.585 Y108.637
G1 F3000 X111.136 Y112.085 E132.11845
G0 F9000 X111.136 Y111.457
G1 F3000 X113.957 Y108.637 E132.40492
G0 F9000 X113.329 Y108.637
G1 F3000 X111.136 Y110.829 E132.62761
G0 F9000 X111.136 Y110.201
G1 F3000 X112.701 Y108.637 E132.78652
G0 F9000 X112.073 Y108.637
G1 F3000 X111.136 Y109.573 E132.88164
G0 F9000 X111.136 Y108.946
G1 F3000 X111.445 Y108.637 E132.91302
G0 F9000 X118.861 Y109.383
G1 F3000 X111.882 Y116.362 E133.62187
G0 F9000 X112.510 Y116.362
G1 F3000 X118.861 Y110.011 E134.26693
G0 F9000 X118.861 Y110.639
G1 F3000 X113.138 Y116.362 E134.84821
G0 F9000 X113.766 Y116.362
G1 F3000 X118.861 Y111.267 E135.36571
G0 F9000 X118.861 Y111.895
G1 F3000 X114.394 Y116.362 E135.81941
G0 F9000 X115.022 Y116.362
G1 F3000 X118.861 Y112.523 E136.20934
G0 F9000 X118.861 Y113.151
G1 F3000 X115.650 Y116.362 E136.53547
G0 F9000 X116.278 Y116.362
G1 F3000 X118.861 Y113.779 E136.79783
G0 F9000 X118.861 Y114.407
G1 F3000 X116.905 Y116.362 E136.99644
G0 F9000 X117.533 Y116.362
G1 F3000 X118.861 Y115.034 E137.13133
G0 F9000 X118.861 Y115.662
G1 F3000 X118.161 Y116.362 E137.20243
G0 F9000 X118.789 Y116.362
G1 F3000 X118.861 Y116.290 E137.20974
G0 F9000 X119.003 Y116.503
;TYPE:WALL-INNER
G1 F3000 X110.997 Y116.503 E137.78473
G1 X110.997 Y108.497 E138.35972
G1 X119.003 Y108.497 E138.93471
G1 X119.003 Y116.503 E139.50970
G0 F9000 X119.402 Y116.902
G1 F3000 X110.598 Y116.902 E140.14201
G1 X110.598 Y108.098 E140.77431
G1 X119.402 Y108.098 E141.40661
G1 X119.402 Y116.902 E142.03892
G0 F9000 X119.801 Y117.301
;TYPE:WALL-OUTER
G1 F1800 X110.199 Y117.301 E142.72853
G1 X110.199 Y107.699 E143.41815
G1 X119.801 Y107.699 E144.10776
G1 X119.801 Y117.301 E144.79738
G0 F9000 X118.803 Y116.303
;LAYER:6
G0 X118.559 Y116.362 Z1.380
;TYPE:FILL
G1 F3000 X111.135 Y108.938 E145.55143
G0 F9000 X111.462 Y108.637
G1 F3000 X118.861 Y116.036 E146.30293
G0 F9000 X118.861 Y115.408
G1 F3000 X112.090 Y108.637 E146.99066
G0 F9000 X112.718 Y108.637
G1 F3000 X118.861 Y114.780 E147.61459
G0 F9000 X118.861 Y114.152
G1 F3000 X113.346 Y108.637 E148.17474
G0 F9000 X113.974 Y108.637
G1 F3000 X118.861 Y113.524 E148.67111
G0 F9000 X118.861 Y112.896
G1 F3000 X114.602 Y108.637 E149.10369
G0 F9000 X115.230 Y108.637
G1 F3000 X118.861 Y112.268 E149.47249
G0 F9000 X118.861 Y111.640
G1 F3000 X115.858 Y108.637 E149.77750
G0 F9000 X116.485 Y108.637
G1 F3000 X118.861 Y111.012 E150.01878
G0 F9000 X118.861 Y110.385
G1 F3000 X117.113 Y108.637 E150.19632
G0 F9000 X117.741 Y108.637
G1 F3000 X118.861 Y109.757 E150.31008
G0 F9000 X118.861 Y109.129
G1 F3000 X118.369 Y108.637 E150.36005
G0 F9000 X111.135 Y109.566
G1 F3000 X117.931 Y116.362 E151.05031
G0 F9000 X117.304 Y116.362
G1 F3000 X111.135 Y110.194 E151.67684
G0 F9000 X111.135 Y110.822
G1 F3000 X116.676 Y116.362 E152.23958
G0 F9000 X116.048 Y116.362
G1 F3000 X111.135 Y111.449 E152.73859
G0 F9000 X111.135 Y112.077
G1 F3000 X115.420 Y116.362 E153.17381
G0 F9000 X114.792 Y116.362
G1 F3000 X111.135 Y112.705 E153.54525
G0 F9000 X111.135 Y113.333
G1 F3000 X114.164 Y116.362 E153.85290
G0 F9000 X113.536 Y116.362
G1 F3000 X111.135 Y113.961 E154.09677
G0 F9000 X111.135 Y114.589
G1 F3000 X112.908 Y116.362 E154.27685
G0 F9000 X112.280 Y116.362
G1 F3000 X111.135 Y115.217 E154.39314
G0 F9000 X111.135 Y115.845
G1 F3000 X111.652 Y116.362 E154.44565
G0 F9000 X110.997 Y116.503
;TYPE:WALL-INNER
G1 F3000 X110.997 Y108.497 E155.02065
G1 X119.003 Y108.497 E155.59564
G1 X119.003 Y116.503 E156.17063
G1 X110.997 Y116.503 E156.74562
G0 F9000 X110.598 Y116.902
G1 F3000 X110.598 Y108.098 E157.37792
G1 X119.402 Y108.098 E158.01022
G1 X119.402 Y116.902 E158.64253
G1 X110.598 Y116.902 E159.27483
G0 F9000 X110.199 Y117.301
;TYPE:WALL-OUTER
G1 F1800 X110.199 Y107.699 E159.96445
G1 X119.801 Y107.699 E160.65406
G1 X119.801 Y117.301 E161.34368
G1 X110.199 Y117.301 E162.03329
G0 F9000 X111.197 Y116.303
;LAYER:7
